modules/feathericon/icons/delete-link.svg

<?xml version="1.0" encoding="UTF-8"?>
<svg width="24px" height="24px" viewBox="0 0 24 24" version="1.1" xmlns="http://www.w3.org/2000/svg" xmlns:xlink="http://www.w3.org/1999/xlink">
    <!-- Generator: sketchtool 52.2 (67145) - http://www.bohemiancoding.com/sketch -->
    <title>delete-link</title>
    <desc>Created with sketchtool.</desc>
    <g id="text-edit" stroke="none" stroke-width="1" fill="none" fill-rule="evenodd">
        <g id="delete-link" fill="#000000" fill-rule="nonzero">
            <path d="M11,9 L7,9 C5.34314575,9 4,10.3431458 4,12 C4,13.6568542 5.34314575,15 7,15 L11,15 L11,17 L7,17 C4.23857625,17 2,14.7614237 2,12 C2,9.23857625 4.23857625,7 7,7 L11,7 L11,9 Z M13,15 L17,15 C18.6568542,15 20,13.6568542 20,12 C20,10.3431458 18.6568542,9 17,9 L13,9 L13,7 L17,7 C19.7614237,7 22,9.23857625 22,12 C22,14.7614237 19.7614237,17 17,17 L13,17 L13,15 Z M13,11 L15,11 C15.5522847,11 16,11.4477153 16,12 C16,12.5522847 15.5522847,13 15,13 L13,13 L13,11 Z M9,11 L11,11 L11,13 L9,13 C8.44771525,13 8,12.5522847 8,12 C8,11.4477153 8.44771525,11 9,11 Z" id="Shape"></path>
        </g>
    </g>
</svg>

<svg width="24" height="24" viewBox="0 0 24 24" xmlns="http://www.w3.org/2000/svg"><path d="M11 9H7a3 3 0 0 0 0 6h4v2H7A5 5 0 0 1 7 7h4v2zm2 6h4a3 3 0 0 0 0-6h-4V7h4a5 5 0 0 1 0 10h-4v-2zm0-4h2a1 1 0 0 1 0 2h-2v-2zm-4 0h2v2H9a1 1 0 0 1 0-2z" fill="#000" fill-rule="nonzero"/></svg>
